X:58
T:Canso de la comtesse de Die
C:Comtesse de Die
M:3/8
L:1/8
K:Am
!mf!d | e2c | cde | d2c | cBA | (c/B/A) Bz | GAB | cde | {d}c/B/AG |
ABc | B//A//G/Az | z2 :: z | eef | e2d | e2d | c/B/AB | 
c2z | cce | g2f | e2d | cBA | c//B//A Bz | GAB | 
cde | c/B/AG | ABc | B/A/G Az | z2 :|





